svgs/tomtom.svg

<svg xmlns="http://www.w3.org/2000/svg" viewBox="0 0 192 192"><path d="m31.657 168.893-.235-7.106-3.249-.406c-2.572-.322-3.249-.745-3.249-2.031 0-1.505.619-1.641 8.462-1.857 5.911-.163 8.642.06 9.062.738 1.088 1.761-.156 3.056-3.177 3.308l-2.976.248-.235 7.106c-.228 6.914-.288 7.107-2.202 7.107-1.913 0-1.973-.193-2.201-7.107Zm17.594 5.965c-3.448-1.502-5.24-4.595-5.24-9.044 0-3.035.439-4.185 2.314-6.06 3.071-3.072 7.201-3.817 11.043-1.994 7.133 3.384 7.07 13.507-.104 16.929-3.287 1.567-4.734 1.598-8.013.169Zm6.618-4.353c2.102-1.403 2.869-4.21 1.777-6.5-1.467-3.076-6.371-3.587-8.279-.864-1.628 2.325-1.636 3.89-.031 6.181 1.26 1.798 4.683 2.418 6.533 1.183Zm11.452 4.982c-.849-.85-.688-12.065.208-14.421 1.471-3.867 7.357-5.618 11.388-3.386 1.723.954 2.351.939 4.363-.101 3.283-1.698 7.254-.781 9.819 2.267 1.845 2.193 2.079 3.191 2.079 8.859 0 6.613-.532 7.751-3.224 6.897-1.374-.436-1.616-1.387-1.82-7.159-.234-6.628-.245-6.657-2.518-6.918-3.761-.431-4.621.987-4.621 7.623 0 6.181-.558 7.3-3.223 6.454-1.375-.436-1.617-1.387-1.821-7.159l-.235-6.656-2.332-.267c-3.397-.388-4.119.844-4.571 7.809-.311 4.78-.702 6.306-1.664 6.488-.692.132-1.514-.017-1.828-.33Zm35.979-6.797v-7.309h-3.249c-2.924 0-3.248-.203-3.248-2.031v-2.03h17.868v2.03c0 1.828-.325 2.031-3.249 2.031h-3.249V176H103.3Zm18.087 6.106c-3.009-1.308-5.897-5.529-5.901-8.625-.007-4.472 5.216-9.639 9.743-9.639s9.749 5.167 9.743 9.639c-.005 3.177-2.929 7.343-6.08 8.66-3.406 1.423-4.16 1.419-7.505-.035Zm7.23-5.013c1.849-1.674 1.916-4.955.141-6.917-2.789-3.082-8.402-.913-8.402 3.247 0 4.344 5.041 6.584 8.261 3.67Zm10.183 5.71c-.317-.317-.576-3.202-.576-6.412 0-4.73.351-6.358 1.855-8.595 2.401-3.574 6.549-4.767 10.215-2.938 2.314 1.154 2.785 1.154 5.098 0 3.686-1.839 7.813-.637 10.247 2.984 1.629 2.424 1.854 3.639 1.652 8.934-.227 5.933-.299 6.128-2.265 6.128-1.963 0-2.039-.202-2.273-6.055-.262-6.575-1.004-8.158-3.819-8.158-2.814 0-3.556 1.583-3.818 8.158-.234 5.853-.31 6.055-2.273 6.055-1.962 0-2.038-.202-2.272-6.055-.263-6.575-1.004-8.158-3.819-8.158s-3.556 1.583-3.819 8.158c-.215 5.382-.426 6.081-1.9 6.292-.912.131-1.917-.022-2.233-.338ZM22.399 134.97l-2.045-2.045.292-25.772c.262-23.05.455-26.158 1.83-29.427 1.794-4.265 3.923-7.639 6.792-10.762l2.052-2.233h-3.654c-4.696 0-7.209-2.147-7.209-6.16 0-1.981.641-3.488 2.104-4.951 2.011-2.011 2.401-2.085 8.897-1.68l6.794.424 3.784-11.482c4.457-13.521 6.468-17.34 10.654-20.231C59.515 15.937 58.929 16 95.99 16s36.475-.063 43.3 4.651c4.186 2.891 6.198 6.71 10.654 20.231l3.785 11.482 6.793-.424c6.496-.405 6.887-.331 8.898 1.68 4.508 4.508 1.765 11.111-4.615 11.111-3.588 0-3.592-.121.179 5.083 5.922 8.172 6.009 8.679 6.342 37.339l.3 25.772-2.045 2.045c-1.977 1.977-2.399 2.045-12.677 2.045-10.206 0-10.712-.08-12.626-1.993-1.45-1.45-1.993-2.877-1.993-5.232 0-1.78-.274-3.385-.609-3.565-.335-.18-4.447.152-9.137.738-4.691.586-17.483 1.306-28.427 1.6-18.517.496-28.222.061-52.381-2.351-1.365-.136-1.691.462-2.08 3.809-.737 6.354-2.083 6.994-14.701 6.994-10.143 0-10.576-.07-12.551-2.045Zm100.943-17.123c1.261-.938 2.408-2.479 2.549-3.424.253-1.696.125-1.711-9.34-1.137-12.497.758-29.045.74-41.403-.046-9.562-.608-9.865-.577-9.462.963.682 2.61 3.367 4.439 7.41 5.049 2.095.315 13.741.512 25.881.437 21.042-.129 22.18-.215 24.365-1.842ZM43.941 97.66c6.75-3.49 5.943-14.181-1.298-17.206-6.41-2.679-13.252 2.049-13.252 9.158 0 3.134.428 4.135 2.762 6.469 2.253 2.253 3.382 2.762 6.132 2.762 1.853 0 4.399-.532 5.656-1.183Zm114.251-.156c4.66-3.053 5.8-9.864 2.34-13.976-4.049-4.812-10.726-5.071-14.946-.579-3.688 3.925-2.789 11.449 1.748 14.626 2.369 1.66 8.276 1.621 10.858-.071ZM147.723 59.33c.581-1.513-7.336-26.067-9.717-30.139-.851-1.456-3.101-3.557-5-4.67l-3.453-2.023H62.105l-3.159 2.106c-1.737 1.158-3.783 2.894-4.546 3.858-1.937 2.447-10.742 29.305-10.13 30.901.454 1.182 5.392 1.307 51.72 1.307 46.855 0 51.263-.114 51.733-1.34Z"/></svg>

<svg
    xmlns="http://www.w3.org/2000/svg"
    viewBox="0 0 192 192"
    id="vector">
    <g id="group">
        <path
            id="path_6"
            d="M 31.657 168.893 L 31.422 161.787 L 28.173 161.381 C 25.601 161.059 24.924 160.636 24.924 159.35 C 24.924 157.845 25.543 157.709 33.386 157.493 C 39.297 157.33 42.028 157.553 42.448 158.231 C 43.536 159.992 42.292 161.287 39.271 161.539 L 36.295 161.787 L 36.06 168.893 C 35.832 175.807 35.772 176 33.858 176 C 31.945 176 31.885 175.807 31.657 168.893 Z M 49.251 174.858 C 45.803 173.356 44.011 170.263 44.011 165.814 C 44.011 162.779 44.45 161.629 46.325 159.754 C 49.396 156.682 53.526 155.937 57.368 157.76 C 64.501 161.144 64.438 171.267 57.264 174.689 C 53.977 176.256 52.53 176.287 49.251 174.858 Z M 55.869 170.505 C 57.971 169.102 58.738 166.295 57.646 164.005 C 56.179 160.929 51.275 160.418 49.367 163.141 C 47.739 165.466 47.731 167.031 49.336 169.322 C 50.596 171.12 54.019 171.74 55.869 170.505 Z M 67.321 175.487 C 66.472 174.637 66.633 163.422 67.529 161.066 C 69 157.199 74.886 155.448 78.917 157.68 C 80.64 158.634 81.268 158.619 83.28 157.579 C 86.563 155.881 90.534 156.798 93.099 159.846 C 94.944 162.039 95.178 163.037 95.178 168.705 C 95.178 175.318 94.646 176.456 91.954 175.602 C 90.58 175.166 90.338 174.215 90.134 168.443 C 89.9 161.815 89.889 161.786 87.616 161.525 C 83.855 161.094 82.995 162.512 82.995 169.148 C 82.995 175.329 82.437 176.448 79.772 175.602 C 78.397 175.166 78.155 174.215 77.951 168.443 L 77.716 161.787 L 75.384 161.52 C 71.987 161.132 71.265 162.364 70.813 169.329 C 70.502 174.109 70.111 175.635 69.149 175.817 C 68.457 175.949 67.635 175.8 67.321 175.487 Z M 103.3 168.69 L 103.3 161.381 L 100.051 161.381 C 97.127 161.381 96.803 161.178 96.803 159.35 L 96.803 157.32 L 114.671 157.32 L 114.671 159.35 C 114.671 161.178 114.346 161.381 111.422 161.381 L 108.173 161.381 L 108.173 176 L 103.3 176 Z M 121.387 174.796 C 118.378 173.488 115.49 169.267 115.486 166.171 C 115.479 161.699 120.702 156.532 125.229 156.532 C 129.756 156.532 134.978 161.699 134.972 166.171 C 134.967 169.348 132.043 173.514 128.892 174.831 C 125.486 176.254 124.732 176.25 121.387 174.796 Z M 128.617 169.783 C 130.466 168.109 130.533 164.828 128.758 162.866 C 125.969 159.784 120.356 161.953 120.356 166.113 C 120.356 170.457 125.397 172.697 128.617 169.783 Z M 138.8 175.493 C 138.483 175.176 138.224 172.291 138.224 169.081 C 138.224 164.351 138.575 162.723 140.079 160.486 C 142.48 156.912 146.628 155.719 150.294 157.548 C 152.608 158.702 153.079 158.702 155.392 157.548 C 159.078 155.709 163.205 156.911 165.639 160.532 C 167.268 162.956 167.493 164.171 167.291 169.466 C 167.064 175.399 166.992 175.594 165.026 175.594 C 163.063 175.594 162.987 175.392 162.753 169.539 C 162.491 162.964 161.749 161.381 158.934 161.381 C 156.12 161.381 155.378 162.964 155.116 169.539 C 154.882 175.392 154.806 175.594 152.843 175.594 C 150.881 175.594 150.805 175.392 150.571 169.539 C 150.308 162.964 149.567 161.381 146.752 161.381 C 143.937 161.381 143.196 162.964 142.933 169.539 C 142.718 174.921 142.507 175.62 141.033 175.831 C 140.121 175.962 139.116 175.809 138.8 175.493 Z M 22.399 134.97 L 20.354 132.925 L 20.646 107.153 C 20.908 84.103 21.101 80.995 22.476 77.726 C 24.27 73.461 26.399 70.087 29.268 66.964 L 31.32 64.731 L 27.666 64.731 C 22.97 64.731 20.457 62.584 20.457 58.571 C 20.457 56.59 21.098 55.083 22.561 53.62 C 24.572 51.609 24.962 51.535 31.458 51.94 L 38.252 52.364 L 42.036 40.882 C 46.493 27.361 48.504 23.542 52.69 20.651 C 59.515 15.937 58.929 16 95.99 16 C 133.051 16 132.465 15.937 139.29 20.651 C 143.476 23.542 145.488 27.361 149.944 40.882 L 153.729 52.364 L 160.522 51.94 C 167.018 51.535 167.409 51.609 169.42 53.62 C 173.928 58.128 171.185 64.731 164.805 64.731 C 161.217 64.731 161.213 64.61 164.984 69.814 C 170.906 77.986 170.993 78.493 171.326 107.153 L 171.626 132.925 L 169.581 134.97 C 167.604 136.947 167.182 137.015 156.904 137.015 C 146.698 137.015 146.192 136.935 144.278 135.022 C 142.828 133.572 142.285 132.145 142.285 129.79 C 142.285 128.01 142.011 126.405 141.676 126.225 C 141.341 126.045 137.229 126.377 132.539 126.963 C 127.848 127.549 115.056 128.269 104.112 128.563 C 85.595 129.059 75.89 128.624 51.731 126.212 C 50.366 126.076 50.04 126.674 49.651 130.021 C 48.914 136.375 47.568 137.015 34.95 137.015 C 24.807 137.015 24.374 136.945 22.399 134.97 Z M 123.342 117.847 C 124.603 116.909 125.75 115.368 125.891 114.423 C 126.144 112.727 126.016 112.712 116.551 113.286 C 104.054 114.044 87.506 114.026 75.148 113.24 C 65.586 112.632 65.283 112.663 65.686 114.203 C 66.368 116.813 69.053 118.642 73.096 119.252 C 75.191 119.567 86.837 119.764 98.977 119.689 C 120.019 119.56 121.157 119.474 123.342 117.847 Z M 43.941 97.66 C 50.691 94.17 49.884 83.479 42.643 80.454 C 36.233 77.775 29.391 82.503 29.391 89.612 C 29.391 92.746 29.819 93.747 32.153 96.081 C 34.406 98.334 35.535 98.843 38.285 98.843 C 40.138 98.843 42.684 98.311 43.941 97.66 Z M 158.192 97.504 C 162.852 94.451 163.992 87.64 160.532 83.528 C 156.483 78.716 149.806 78.457 145.586 82.949 C 141.898 86.874 142.797 94.398 147.334 97.575 C 149.703 99.235 155.61 99.196 158.192 97.504 Z M 147.723 59.33 C 148.304 57.817 140.387 33.263 138.006 29.191 C 137.155 27.735 134.905 25.634 133.006 24.521 L 129.553 22.498 L 62.105 22.498 L 58.946 24.604 C 57.209 25.762 55.163 27.498 54.4 28.462 C 52.463 30.909 43.658 57.767 44.27 59.363 C 44.724 60.545 49.662 60.67 95.99 60.67 C 142.845 60.67 147.253 60.556 147.723 59.33 Z"
            fill="#000000"
            stroke-width="12"/>
    </g>
</svg>
